X:1
T:tarantella siciliana
T:tarantella siciliana
T:pianoforte 1
L:1/8
M:12/8
K:C
V:1 treble nm="Piano" snm="Pno."
V:1
 z8 z ceg | c'ba gag c2 z ceg | c'ba gag d2 z def | b^a=a g^fg b^a=a gfg | b^a=a g^f=f e z2 ceg | %5
 c'ba gag c2 z ceg | c'bc' d'c'b a2 z z ab | a^ga c'ba =g^fg c'ba | gfe gfd c3 c' z2 | %9
 e3 ^dec A3 Ace | a^ga c'ba g2 a b z z | d'3 bd'b ^g3 z ef | efe dcB cec A2 z | e3 ^dec A3 Ace | %14
 a^ga c'ba =gfe fde | fef a^ga c'ae cef | efe dcB A z z4 | z12 | z12 | z12 | z12 | z12 | z12 | %23
 z12 | z12 | z12 | z12 | z12 | z12 | z12 | z12 | z12 | z8 z Ace | a^gf efe A3 Ace | %34
 a^gf efe B3 Bcd | ^gfe e^de gfe ede | ^gfe e^d=d c z z Ace | a^g=g efe A3 A^ce | %38
 a^ga bag ^f3 z fg | ^f=f^f a^gf e^de agf | ed^c edB A3 a z2 | A3 z z8 | z6 a' z z4 |] %43

